assets/icons/globe.svg

<!-- Generated by IcoMoon.io -->
<svg version="1.1" xmlns="http://www.w3.org/2000/svg" width="25" height="32" viewBox="0 0 25 32">
<title>globe</title>
<path d="M13.552 22c5.79 0 10.5-4.71 10.5-10.5s-4.71-10.5-10.5-10.5-10.5 4.71-10.5 10.5 4.71 10.5 10.5 10.5zM13.552 2c5.238 0 9.5 4.262 9.5 9.5s-4.262 9.5-9.5 9.5-9.5-4.262-9.5-9.5 4.261-9.5 9.5-9.5zM9.052 28c-1.141 0-2 0.859-2 2v1.5c0 0.276 0.224 0.5 0.5 0.5h12c0.276 0 0.5-0.224 0.5-0.5v-1.425c0-1.164-0.879-2.075-2-2.075h-9zM19.052 30.075v0.925h-11v-1c0-0.589 0.411-1 1-1h9c0.57 0 1 0.462 1 1.075zM13.055 24.978c0 0.006-0.003 0.010-0.003 0.016v1.604c0 0.276 0.224 0.5 0.5 0.5s0.5-0.224 0.5-0.5v-1.604c0-0.007-0.004-0.013-0.004-0.020 3.233-0.129 6.268-1.376 8.638-3.581l1.18 1.179c0.195 0.195 0.512 0.195 0.707 0s0.195-0.512 0-0.707l-1.526-1.526c-0.195-0.195-0.512-0.195-0.707 0-2.362 2.361-5.501 3.661-8.84 3.661s-6.478-1.3-8.839-3.661-3.661-5.5-3.661-8.839 1.3-6.478 3.661-8.839c0.195-0.195 0.195-0.512 0-0.707l-1.526-1.526c-0.195-0.195-0.512-0.195-0.707 0s-0.195 0.512 0 0.707l1.179 1.18c-2.331 2.503-3.607 5.747-3.607 9.185 0 3.605 1.404 6.996 3.954 9.546 2.444 2.444 5.663 3.821 9.101 3.932z"></path>
</svg>

<svg xmlns="http://www.w3.org/2000/svg" width="25" height="32"><path d="M13.552 22c5.79 0 10.5-4.71 10.5-10.5S19.342 1 13.552 1s-10.5 4.71-10.5 10.5S7.762 22 13.552 22zm0-20c5.238 0 9.5 4.262 9.5 9.5s-4.262 9.5-9.5 9.5-9.5-4.262-9.5-9.5S8.313 2 13.552 2zm-4.5 26c-1.141 0-2 .859-2 2v1.5a.5.5 0 00.5.5h12a.5.5 0 00.5-.5v-1.425c0-1.164-.879-2.075-2-2.075h-9zm10 2.075V31h-11v-1c0-.589.411-1 1-1h9c.57 0 1 .462 1 1.075zm-5.997-5.097c0 .006-.003.01-.003.016v1.604a.5.5 0 001 0v-1.604c0-.007-.004-.013-.004-.02a13.386 13.386 0 008.638-3.581l1.18 1.179a.5.5 0 00.707-.707l-1.526-1.526a.5.5 0 00-.707 0C19.978 22.7 16.839 24 13.5 24s-6.478-1.3-8.839-3.661S1 14.839 1 11.5s1.3-6.478 3.661-8.839a.5.5 0 000-.707L3.135.428a.5.5 0 00-.707.707l1.179 1.18A13.395 13.395 0 000 11.5c0 3.605 1.404 6.996 3.954 9.546a13.395 13.395 0 009.101 3.932z"/></svg>
